; G-Code generated by Simplify3D(R) Version 4.1.2
; Jan 31, 2021 at 10:19:22 PM
; Settings Summary
;   processName,Process1
;   applyToModels,Front v1
;   profileName,Predefinito (modified)
;   profileVersion,2020-04-20 14:24:54
;   baseProfile,Default (modified)
;   printMaterial,PLA
;   printQuality,Medium
;   printExtruders,
;   extruderName,Primary Extruder
;   extruderToolheadNumber,0
;   extruderDiameter,0.4
;   extruderAutoWidth,0
;   extruderWidth,0.4
;   extrusionMultiplier,0.9
;   extruderUseRetract,1
;   extruderRetractionDistance,6
;   extruderExtraRestartDistance,0
;   extruderRetractionZLift,0
;   extruderRetractionSpeed,3600
;   extruderUseCoasting,0
;   extruderCoastingDistance,0.2
;   extruderUseWipe,0
;   extruderWipeDistance,4
;   primaryExtruder,0
;   layerHeight,0.2
;   topSolidLayers,4
;   bottomSolidLayers,4
;   perimeterOutlines,2
;   printPerimetersInsideOut,1
;   startPointOption,3
;   startPointOriginX,0
;   startPointOriginY,500
;   sequentialIslands,0
;   spiralVaseMode,0
;   firstLayerHeightPercentage,100
;   firstLayerWidthPercentage,100
;   firstLayerUnderspeed,0.5
;   useRaft,0
;   raftExtruder,0
;   raftTopLayers,3
;   raftBaseLayers,2
;   raftOffset,5
;   raftSeparationDistance,0.1
;   raftTopInfill,100
;   aboveRaftSpeedMultiplier,0.3
;   useSkirt,0
;   skirtExtruder,0
;   skirtLayers,1
;   skirtOutlines,1
;   skirtOffset,5
;   usePrimePillar,0
;   primePillarExtruder,999
;   primePillarWidth,12
;   primePillarLocation,7
;   primePillarSpeedMultiplier,1
;   useOozeShield,0
;   oozeShieldExtruder,999
;   oozeShieldOffset,2
;   oozeShieldOutlines,1
;   oozeShieldSidewallShape,1
;   oozeShieldSidewallAngle,30
;   oozeShieldSpeedMultiplier,1
;   infillExtruder,0
;   internalInfillPattern,Grid
;   externalInfillPattern,Rectilinear
;   infillPercentage,20
;   outlineOverlapPercentage,15
;   infillExtrusionWidthPercentage,100
;   minInfillLength,2.5
;   infillLayerInterval,1
;   internalInfillAngles,45,-45
;   overlapInternalInfillAngles,1
;   externalInfillAngles,45,-45
;   generateSupport,0
;   supportExtruder,0
;   supportInfillPercentage,15
;   supportExtraInflation,0
;   supportBaseLayers,0
;   denseSupportExtruder,0
;   denseSupportLayers,0
;   denseSupportInfillPercentage,75
;   supportLayerInterval,1
;   supportHorizontalPartOffset,0.2
;   supportUpperSeparationLayers,1
;   supportLowerSeparationLayers,1
;   supportType,0
;   supportGridSpacing,2.5
;   maxOverhangAngle,50
;   supportAngles,0
;   temperatureName,Primary Extruder,Heated Bed
;   temperatureNumber,0,0
;   temperatureSetpointCount,2,1
;   temperatureSetpointLayers,1,3,1
;   temperatureSetpointTemperatures,200,190,60
;   temperatureStabilizeAtStartup,1,1
;   temperatureHeatedBed,0,1
;   fanLayers,1,2
;   fanSpeeds,0,100
;   blipFanToFullPower,1
;   adjustSpeedForCooling,1
;   minSpeedLayerTime,15
;   minCoolingSpeedSlowdown,20
;   increaseFanForCooling,0
;   minFanLayerTime,45
;   maxCoolingFanSpeed,100
;   increaseFanForBridging,0
;   bridgingFanSpeed,100
;   use5D,1
;   relativeEdistances,0
;   allowEaxisZeroing,1
;   independentExtruderAxes,0
;   includeM10123,0
;   stickySupport,1
;   applyToolheadOffsets,0
;   gcodeXoffset,0
;   gcodeYoffset,0
;   gcodeZoffset,0
;   overrideMachineDefinition,1
;   machineTypeOverride,0
;   strokeXoverride,235
;   strokeYoverride,235
;   strokeZoverride,250
;   originOffsetXoverride,0
;   originOffsetYoverride,0
;   originOffsetZoverride,0
;   homeXdirOverride,-1
;   homeYdirOverride,-1
;   homeZdirOverride,-1
;   flipXoverride,1
;   flipYoverride,-1
;   flipZoverride,1
;   toolheadOffsets,0,0|0,0|0,0|0,0|0,0|0,0
;   overrideFirmwareConfiguration,1
;   firmwareTypeOverride,RepRap (Marlin/Repetier/Sprinter)
;   GPXconfigOverride,r2
;   baudRateOverride,115200
;   overridePrinterModels,0
;   printerModelsOverride
;   startingGcode,G28 					; Home all axes,,G92 E0					; Reset Extruder,G1 F300 E30				; Extrude 30mm of filament,,G92 E0 					; Reset Extruder,G1 Z2.0 F3000 				; Move Z Axis up little to prevent scratching of Heat Bed,G1 X0.1 Y20 Z0.3 F5000.0 			; Move to start position,G1 X0.1 Y200.0 Z0.3 F1500.0 E15 		; Draw the first line,G1 X0.4 Y200.0 Z0.3 F5000.0 			; Move to side a little,G1 X0.4 Y20 Z0.3 F1500.0 E30 			; Draw the second line
;   layerChangeGcode,
;   retractionGcode,
;   toolChangeGcode,
;   endingGcode,G4 					; Wait,M220 S100 				; Reset Speed factor override percentage to default (100%),M221 S100 				; Reset Extrude factor override percentage to default (100%),,G91 					; Set coordinates to relative,G1 F300 E-30 				; Retract filament 30 mm to prevent oozing,G1 F3000 Z20 				; Move Z Axis up 20 mm to allow filament ooze freely,,G90 					; Set coordinates to absolute,G1 X0 Y200 F1000 				; Move Heat Bed to the front for easy print removal,,M84 					; Turn off stepper motors,M104 S0 					; Turn off extruder,M140 S0 					; Turn off bed,M107					; Turn off fan
;   exportFileFormat,gcode
;   celebration,0
;   celebrationSong,Star Wars
;   postProcessing,
;   defaultSpeed,2400
;   outlineUnderspeed,0.5
;   solidInfillUnderspeed,0.75
;   supportUnderspeed,0.75
;   rapidXYspeed,4800
;   rapidZspeed,1002
;   minBridgingArea,50
;   bridgingExtraInflation,0
;   bridgingExtrusionMultiplier,1
;   bridgingSpeedMultiplier,1
;   useFixedBridgingAngle,0
;   fixedBridgingAngle,0
;   applyBridgingToPerimeters,0
;   filamentDiameters,1.75|1.75|1.75|1.75|1.75|1.75
;   filamentPricesPerKg,20|46|46|46|46|46
;   filamentDensities,1.25|1.25|1.25|1.25|1.25|1.25
;   useMinPrintHeight,0
;   minPrintHeight,0
;   useMaxPrintHeight,0
;   maxPrintHeight,0
;   useDiaphragm,0
;   diaphragmLayerInterval,20
;   robustSlicing,1
;   mergeAllIntoSolid,0
;   onlyRetractWhenCrossingOutline,0
;   retractBetweenLayers,1
;   useRetractionMinTravel,1
;   retractionMinTravel,3
;   retractWhileWiping,1
;   onlyWipeOutlines,1
;   avoidCrossingOutline,1
;   maxMovementDetourFactor,3
;   toolChangeRetractionDistance,12
;   toolChangeExtraRestartDistance,-0.5
;   toolChangeRetractionSpeed,600
;   externalThinWallType,0
;   internalThinWallType,2
;   thinWallAllowedOverlapPercentage,15
;   singleExtrusionMinLength,0
;   singleExtrusionMinPrintingWidthPercentage,50
;   singleExtrusionMaxPrintingWidthPercentage,200
;   singleExtrusionEndpointExtension,0.2
;   horizontalSizeCompensation,0
G90
M82
M106 S0
M140 S60
M190 S60
M104 S200 T0
M109 S200 T0
G28 					; Home all axes
G92 E0					; Reset Extruder
G1 F300 E30				; Extrude 30mm of filament
G92 E0 					; Reset Extruder
G1 Z2.0 F3000 				; Move Z Axis up little to prevent scratching of Heat Bed
G1 X0.1 Y20 Z0.3 F5000.0 			; Move to start position
G1 X0.1 Y200.0 Z0.3 F1500.0 E15 		; Draw the first line
G1 X0.4 Y200.0 Z0.3 F5000.0 			; Move to side a little
G1 X0.4 Y20 Z0.3 F1500.0 E30 			; Draw the second line
; process Process1
; layer 1, Z = 0.200
T0
G92 E0.0000
G1 E-6.0000 F3600
; feature inner perimeter
; tool H0.200 W0.400
G1 Z0.200 F1002
G1 X88.025 Y116.900 F4800
G1 E0.0000 F3600
G92 E0.0000
G1 X88.025 Y77.900 E1.1674 F900
G1 X146.975 Y77.900 E2.9320
G1 X146.975 Y116.900 E4.0995
G1 X88.025 Y116.900 E5.8641
; feature outer perimeter
G1 X87.625 Y117.300 F4800
G92 E0.0000
G1 X87.625 Y77.500 E1.1914 F600
G1 X147.375 Y77.500 E2.9799
G1 X147.375 Y117.300 E4.1713
G1 X87.625 Y117.300 E5.9599
G92 E0.0000
G1 E-6.0000 F3600
; feature inner perimeter
G1 X96.825 Y102.200 F4800
G1 E0.0000 F3600
G92 E0.0000
G1 X124.525 Y102.200 E0.8292 F900
G1 X124.525 Y91.600 E1.1465
G1 X96.825 Y91.600 E1.9757
G1 X96.825 Y102.200 E2.2930
; feature outer perimeter
G1 X97.225 Y101.800 F4800
G92 E0.0000
G1 X124.125 Y101.800 E0.8052 F600
G1 X124.125 Y92.000 E1.0986
G1 X97.225 Y92.000 E1.9038
G1 X97.225 Y101.800 E2.1972
G92 E0.0000
G1 E-6.0000 F3600
; feature inner perimeter
G1 X124.125 Y101.800 F4800
G1 X124.125 Y101.376
G1 X135.275 Y101.200
G1 E0.0000 F3600
G92 E0.0000
G1 X142.875 Y101.200 E0.2275 F900
G1 X142.875 Y93.600 E0.4550
G1 X135.275 Y93.600 E0.6825
G1 X135.275 Y101.200 E0.9100
; feature outer perimeter
G1 X135.675 Y100.800 F4800
G92 E0.0000
G1 X142.475 Y100.800 E0.2036 F600
G1 X142.475 Y94.000 E0.4071
G1 X135.675 Y94.000 E0.6107
G1 X135.675 Y100.800 E0.8142
; feature solid layer
G1 X135.216 Y101.540 F4800
G92 E0.0000
G1 X146.635 Y112.959 E0.4834 F900
G1 X146.635 Y112.393 E0.5003
G1 X135.782 Y101.540 E0.9598
G1 X136.348 Y101.540 E0.9767
G1 X146.635 Y111.827 E1.4122
G1 X146.635 Y111.261 E1.4291
G1 X136.914 Y101.540 E1.8407
G1 X137.479 Y101.540 E1.8576
G1 X146.635 Y110.696 E2.2452
G1 X146.635 Y110.130 E2.2621
G1 X138.045 Y101.540 E2.6258
G1 X138.611 Y101.540 E2.6427
G1 X146.635 Y109.564 E2.9824
G1 X146.635 Y108.999 E2.9993
G1 X139.176 Y101.540 E3.3151
G1 X139.742 Y101.540 E3.3320
G1 X146.635 Y108.433 E3.6238
G1 X146.635 Y107.867 E3.6408
G1 X140.308 Y101.540 E3.9086
G1 X140.873 Y101.540 E3.9255
G1 X146.635 Y107.302 E4.1695
G1 X146.635 Y106.736 E4.1864
G1 X141.439 Y101.540 E4.4064
G1 X142.005 Y101.540 E4.4233
G1 X146.635 Y106.170 E4.6193
G1 X146.635 Y105.605 E4.6362
G1 X142.570 Y101.540 E4.8083
G1 X143.136 Y101.540 E4.8252
G1 X146.635 Y105.039 E4.9734
G1 X146.635 Y104.473 E4.9903
G1 X143.215 Y101.053 E5.1351
G1 X143.215 Y100.488 E5.1520
G1 X146.635 Y103.908 E5.2968
G1 X146.635 Y103.342 E5.3137
G1 X143.215 Y99.922 E5.4585
G1 X143.215 Y99.356 E5.4754
G1 X146.635 Y102.776 E5.6202
G1 X146.635 Y102.211 E5.6372
G1 X143.215 Y98.790 E5.7819
G1 X143.215 Y98.225 E5.7989
G1 X146.635 Y101.645 E5.9436
G1 X146.635 Y101.079 E5.9606
G1 X143.215 Y97.659 E6.1054
G1 X143.215 Y97.093 E6.1223
G1 X146.635 Y100.513 E6.2671
G1 X146.635 Y99.948 E6.2840
G1 X143.215 Y96.528 E6.4288
G1 X143.215 Y95.962 E6.4457
G1 X146.635 Y99.382 E6.5905
G1 X146.635 Y98.816 E6.6074
G1 X143.215 Y95.396 E6.7522
G1 X143.215 Y94.831 E6.7691
G1 X146.635 Y98.251 E6.9139
G1 X146.635 Y97.685 E6.9309
G1 X143.215 Y94.265 E7.0756
G92 E0.0000
G1 E-6.0000 F3600
G1 X146.423 Y78.240 F4800
G1 E0.0000 F3600
G92 E0.0000
G1 X146.635 Y78.452 E0.0090 F900
G1 X146.635 Y79.017 E0.0259
G1 X145.858 Y78.240 E0.0588
G1 X145.292 Y78.240 E0.0757
G1 X146.635 Y79.583 E0.1326
G1 X146.635 Y80.149 E0.1495
G1 X144.726 Y78.240 E0.2303
G1 X144.161 Y78.240 E0.2473
G1 X146.635 Y80.714 E0.3520
G1 X146.635 Y81.280 E0.3690
G1 X143.595 Y78.240 E0.4977
G1 X143.029 Y78.240 E0.5146
G1 X146.635 Y81.846 E0.6672
G1 X146.635 Y82.412 E0.6842
G1 X142.463 Y78.240 E0.8608
G1 X141.898 Y78.240 E0.8777
G1 X146.635 Y82.977 E1.0782
G1 X146.635 Y83.543 E1.0952
G1 X141.332 Y78.240 E1.3197
G1 X140.766 Y78.240 E1.3366
G1 X146.635 Y84.109 E1.5850
G1 X146.635 Y84.674 E1.6020
G1 X140.201 Y78.240 E1.8743
G1 X139.635 Y78.240 E1.8913
G1 X146.635 Y85.240 E2.1876
G1 X146.635 Y85.806 E2.2045
G1 X139.069 Y78.240 E2.5248
G1 X138.504 Y78.240 E2.5418
G1 X146.635 Y86.371 E2.8860
G1 X146.635 Y86.937 E2.9029
G1 X137.938 Y78.240 E3.2711
G1 X137.372 Y78.240 E3.2880
G1 X146.635 Y87.503 E3.6801
G1 X146.635 Y88.068 E3.6971
G1 X136.807 Y78.240 E4.1131
G1 X136.241 Y78.240 E4.1301
G1 X146.635 Y88.634 E4.5701
G1 X146.635 Y89.200 E4.5870
G1 X135.675 Y78.240 E5.0510
G1 X135.110 Y78.240 E5.0679
G1 X146.635 Y89.765 E5.5558
G1 X146.635 Y90.331 E5.5728
G1 X134.544 Y78.240 E6.0846
G1 X133.978 Y78.240 E6.1015
G1 X146.635 Y90.897 E6.6374
G1 X146.635 Y91.462 E6.6543
G1 X133.413 Y78.240 E7.2140
G1 X132.847 Y78.240 E7.2310
G1 X146.635 Y92.028 E7.8147
G1 X146.635 Y92.594 E7.8316
G1 X132.281 Y78.240 E8.4392
G1 X131.715 Y78.240 E8.4562
G1 X146.635 Y93.160 E9.0878
G1 X146.635 Y93.725 E9.1047
G1 X131.150 Y78.240 E9.7602
G1 X130.584 Y78.240 E9.7772
G1 X146.635 Y94.291 E10.4567
G1 X146.635 Y94.857 E10.4736
G1 X130.018 Y78.240 E11.1770
G1 X129.453 Y78.240 E11.1940
G1 X146.635 Y95.422 E11.9214
G1 X146.635 Y95.988 E11.9383
G1 X128.887 Y78.240 E12.6896
G1 X128.321 Y78.240 E12.7065
G1 X146.635 Y96.554 E13.4818
G1 X146.635 Y97.119 E13.4988
G1 X143.215 Y93.699 E13.6435
G1 X143.215 Y93.260 E13.6567
G1 X142.776 Y93.260 E13.6698
G1 X127.756 Y78.240 E14.3057
G1 X127.190 Y78.240 E14.3226
G1 X142.210 Y93.260 E14.9585
G1 X141.644 Y93.260 E14.9754
G1 X126.624 Y78.240 E15.6112
G1 X126.059 Y78.240 E15.6282
G1 X141.079 Y93.260 E16.2640
G1 X140.513 Y93.260 E16.2810
G1 X125.493 Y78.240 E16.9168
G1 X124.927 Y78.240 E16.9337
G1 X139.947 Y93.260 E17.5696
G1 X139.382 Y93.260 E17.5865
G1 X124.362 Y78.240 E18.2224
G1 X123.796 Y78.240 E18.2393
G1 X138.816 Y93.260 E18.8751
G1 X138.250 Y93.260 E18.8921
G1 X123.230 Y78.240 E19.5279
G1 X122.664 Y78.240 E19.5448
G1 X137.684 Y93.260 E20.1807
G1 X137.119 Y93.260 E20.1976
G1 X122.099 Y78.240 E20.8335
G1 X121.533 Y78.240 E20.8504
G1 X136.553 Y93.260 E21.4862
G1 X135.987 Y93.260 E21.5032
G1 X120.967 Y78.240 E22.1390
G1 X120.402 Y78.240 E22.1560
G1 X135.422 Y93.260 E22.7918
G1 X134.935 Y93.260 E22.8064
G1 X134.935 Y93.339 E22.8087
G1 X119.836 Y78.240 E23.4479
G1 X119.270 Y78.240 E23.4649
G1 X134.935 Y93.905 E24.1280
G1 X134.935 Y94.470 E24.1449
G1 X118.705 Y78.240 E24.8320
G1 X118.139 Y78.240 E24.8489
G1 X134.935 Y95.036 E25.5600
G1 X134.935 Y95.602 E25.5769
G1 X117.573 Y78.240 E26.3119
G1 X117.008 Y78.240 E26.3288
G1 X134.935 Y96.167 E27.0877
G1 X134.935 Y96.733 E27.1047
G1 X116.442 Y78.240 E27.8875
G1 X115.876 Y78.240 E27.9045
G1 X134.935 Y97.299 E28.7113
G1 X134.935 Y97.864 E28.7282
G1 X115.311 Y78.240 E29.5590
G1 X114.745 Y78.240 E29.5759
G1 X134.935 Y98.430 E30.4306
G1 X134.935 Y98.996 E30.4476
G1 X114.179 Y78.240 E31.3262
G1 X113.614 Y78.240 E31.3432
G1 X134.935 Y99.561 E32.2458
G1 X134.935 Y100.127 E32.2627
G1 X113.048 Y78.240 E33.1893
G1 X112.482 Y78.240 E33.2062
G1 X134.935 Y100.693 E34.1567
G1 X134.935 Y101.259 E34.1736
G1 X111.916 Y78.240 E35.1481
G1 X111.351 Y78.240 E35.1650
G1 X124.371 Y91.260 E35.7162
G1 X123.805 Y91.260 E35.7331
G1 X110.785 Y78.240 E36.2843
G1 X110.219 Y78.240 E36.3012
G1 X123.239 Y91.260 E36.8524
G1 X122.674 Y91.260 E36.8693
G1 X109.654 Y78.240 E37.4205
G1 X109.088 Y78.240 E37.4375
G1 X122.108 Y91.260 E37.9886
G1 X121.542 Y91.260 E38.0056
G1 X108.522 Y78.240 E38.5567
G1 X107.957 Y78.240 E38.5737
G1 X120.977 Y91.260 E39.1249
G1 X120.411 Y91.260 E39.1418
G1 X107.391 Y78.240 E39.6930
G1 X106.825 Y78.240 E39.7099
G1 X119.845 Y91.260 E40.2611
G1 X119.280 Y91.260 E40.2780
G1 X106.260 Y78.240 E40.8292
G1 X105.694 Y78.240 E40.8461
G1 X118.714 Y91.260 E41.3973
G1 X118.148 Y91.260 E41.4142
G1 X105.128 Y78.240 E41.9654
G1 X104.563 Y78.240 E41.9823
G1 X117.583 Y91.260 E42.5335
G1 X117.017 Y91.260 E42.5505
G1 X103.997 Y78.240 E43.1016
G1 X103.431 Y78.240 E43.1186
G1 X116.451 Y91.260 E43.6697
G1 X115.885 Y91.260 E43.6867
G1 X102.866 Y78.240 E44.2379
G1 X102.300 Y78.240 E44.2548
G1 X115.320 Y91.260 E44.8060
G1 X114.754 Y91.260 E44.8229
G1 X101.734 Y78.240 E45.3741
G1 X101.168 Y78.240 E45.3910
G1 X114.188 Y91.260 E45.9422
G1 X113.623 Y91.260 E45.9591
G1 X100.603 Y78.240 E46.5103
G1 X100.037 Y78.240 E46.5272
G1 X113.057 Y91.260 E47.0784
G1 X112.491 Y91.260 E47.0953
G1 X99.471 Y78.240 E47.6465
G1 X98.906 Y78.240 E47.6635
G1 X111.926 Y91.260 E48.2146
G1 X111.360 Y91.260 E48.2316
G1 X98.340 Y78.240 E48.7828
G1 X97.774 Y78.240 E48.7997
G1 X110.794 Y91.260 E49.3509
G1 X110.229 Y91.260 E49.3678
G1 X97.209 Y78.240 E49.9190
G1 X96.643 Y78.240 E49.9359
G1 X109.663 Y91.260 E50.4871
G1 X109.097 Y91.260 E50.5040
G1 X96.077 Y78.240 E51.0552
G1 X95.512 Y78.240 E51.0721
G1 X108.532 Y91.260 E51.6233
G1 X107.966 Y91.260 E51.6402
G1 X94.946 Y78.240 E52.1914
G1 X94.380 Y78.240 E52.2084
G1 X107.400 Y91.260 E52.7595
G1 X106.835 Y91.260 E52.7765
G1 X93.815 Y78.240 E53.3276
G1 X93.249 Y78.240 E53.3446
G1 X106.269 Y91.260 E53.8958
G1 X105.703 Y91.260 E53.9127
G1 X92.683 Y78.240 E54.4639
G1 X92.117 Y78.240 E54.4808
G1 X105.137 Y91.260 E55.0320
G1 X104.572 Y91.260 E55.0489
G1 X91.552 Y78.240 E55.6001
G1 X90.986 Y78.240 E55.6170
G1 X104.006 Y91.260 E56.1682
G1 X103.440 Y91.260 E56.1851
G1 X90.420 Y78.240 E56.7363
G1 X89.855 Y78.240 E56.7532
G1 X102.875 Y91.260 E57.3044
G1 X102.309 Y91.260 E57.3214
G1 X89.289 Y78.240 E57.8725
G1 X88.723 Y78.240 E57.8895
G1 X101.743 Y91.260 E58.4406
G1 X101.178 Y91.260 E58.4576
G1 X88.365 Y78.447 E59.0000
G1 X88.365 Y79.013 E59.0169
G1 X100.612 Y91.260 E59.5354
